X: 15131
T: Gig Harbor
R: jig
M: 6/8
K: Gmajor
|:dc|BGD G,B,D|CDE A,2 G|FAF DFA|GAB d2 c|
BGD G,B,D|CDE A,2 G|FAF DEF|G3- G:|
K: DMaj
|:FG|A2 d dc=c|B2 g e2 d|cec Ace|dfb a2 A|
A2 d dc=c|B2 g e2 d|cec ABc|d3- d:|

